; generated by PrusaSlicer 2.4.0+win64 on 2022-02-11 at 17:41:40 UTC

; 

; external perimeters extrusion width = 0.45mm
; perimeters extrusion width = 0.45mm
; infill extrusion width = 0.45mm
; solid infill extrusion width = 0.45mm
; top infill extrusion width = 0.40mm
; first layer extrusion width = 0.42mm

M73 P0 R73
M73 Q0 S73
M201 X1000 Y1000 Z200 E5000 ; sets maximum accelerations, mm/sec^2
M203 X200 Y200 Z12 E120 ; sets maximum feedrates, mm/sec
M204 P1250 R1250 T1250 ; sets acceleration (P, T) and retract acceleration (R), mm/sec^2
M205 X8.00 Y8.00 Z0.40 E4.50 ; sets the jerk limits, mm/sec
M205 S0 T0 ; sets the minimum extruding and travel feed rate, mm/sec
M107
;TYPE:Custom
M862.3 P "MK3S" ; printer model check
M862.1 P0.4 ; nozzle diameter check
M115 U3.10.1 ; tell printer latest fw version
G90 ; use absolute coordinates
M83 ; extruder relative mode
M104 S215 ; set extruder temp
M140 S60 ; set bed temp
M190 S60 ; wait for bed temp
M109 S215 ; wait for extruder temp
G28 W ; home all without mesh bed level
G80 ; mesh bed leveling
G1 Y-3.0 F1000.0 ; go outside print area
G92 E0.0
G1 X60.0 E9.0 F1000.0 ; intro line
G1 X100.0 E12.5 F1000.0 ; intro line
G92 E0.0
M221 S95

; Don't change E values below. Excessive value can damage the printer.
M907 E430 ; set extruder motor current
G21 ; set units to millimeters
G90 ; use absolute coordinates
M83 ; use relative distances for extrusion
M900 K0.05 ; Filament gcode LA 1.5
M900 K30 ; Filament gcode LA 1.0
M107
;LAYER_CHANGE
;Z:0.2
;HEIGHT:0.2
;BEFORE_LAYER_CHANGE
G92 E0.0
;0.2


G1 E-.8 F2100
G1 Z.4 F10800
;AFTER_LAYER_CHANGE
;0.2
G1 X108.139 Y92.583
G1 Z.2
G1 E.8 F2100
M204 S1000
;TYPE:Skirt/Brim
;WIDTH:0.42
G1 F1200
G1 X109.205 Y91.569 E.04612
G1 X110.5 Y91.246 E.04186
G1 X139.5 Y91.246 E.90927
G1 X140.917 Y91.639 E.04612
G1 X141.931 Y92.705 E.04612
G1 X142.254 Y94 E.04186
G1 X142.254 Y116 E.68979
G1 X141.861 Y117.417 E.04612
G1 X140.795 Y118.431 E.04612
G1 X139.5 Y118.754 E.04186
G1 X110.5 Y118.754 E.90927
G1 X109.083 Y118.361 E.04612
G1 X108.069 Y117.295 E.04612
G1 X107.746 Y116 E.04186
G1 X107.746 Y94 E.68979
M73 P0 R72
G1 X108.123 Y92.64 E.04424
G1 X108.497 Y92.752 F10800
G1 F1200
G1 X108.515 Y92.693 E.00195
G1 X109.56 Y91.817 E.04278
G1 X110.5 Y91.623 E.03008
G1 X139.5 Y91.623 E.90927
G1 X140.807 Y92.015 E.04278
G1 X141.683 Y93.06 E.04278
G1 X141.877 Y94 E.03008
G1 X141.877 Y116 E.68979
G1 X141.485 Y117.307 E.04278
G1 X140.44 Y118.183 E.04278
G1 X139.5 Y118.377 E.03008
G1 X110.5 Y118.377 E.90927
G1 X109.193 Y117.985 E.04278
G1 X108.317 Y116.94 E.04278
G1 X108.123 Y116 E.03008
G1 X108.123 Y94 E.68979
G1 X108.479 Y92.81 E.03895
; printing object Cage_batterie_9v.stl id:0 copy 0
;WIPE_START
G1 F8640
G1 X108.515 Y92.693 E-.0282
G1 X109.56 Y91.817 E-.31505
G1 X110.5 Y91.623 E-.22155
G1 X111.345 Y91.623 E-.1952
;WIPE_END
G1 E-.04 F2100
G1 Z.6 F10800
G1 X135.22 Y105.746
G1 Z.2
G1 E.8 F2100
;TYPE:Perimeter
G1 F1200
G1 X135.609 Y105.442 E.01549
G1 X136.078 Y105.262 E.01575
G1 X136.5 Y105.206 E.01334
G1 X136.964 Y105.267 E.01468
G1 X137.397 Y105.446 E.01468
G1 X137.768 Y105.732 E.01468
G1 X138.054 Y106.103 E.01468
G1 X138.233 Y106.536 E.01468
G1 X138.294 Y107 E.01468
G1 X138.233 Y107.464 E.01468
G1 X138.054 Y107.897 E.01468
G1 X137.768 Y108.268 E.01468
G1 X137.397 Y108.554 E.01468
G1 X136.964 Y108.733 E.01468
G1 X136.5 Y108.794 E.01468
G1 X136.036 Y108.733 E.01468
G1 X135.603 Y108.554 E.01468
G1 X135.232 Y108.268 E.01468
G1 X134.946 Y107.897 E.01468
G1 X134.767 Y107.464 E.01468
G1 X134.706 Y107 E.01468
G1 X134.767 Y106.536 E.01468
G1 X134.946 Y106.103 E.01468
G1 X135.184 Y105.794 E.01222
G1 X135.276 Y106.293 F10800
;TYPE:External perimeter
G1 F1200
G1 X135.5 Y106 E.01157
G1 X135.795 Y105.774 E.01166
G1 X136.172 Y105.63 E.01263
G1 X136.5 Y105.586 E.01038
G1 X136.866 Y105.635 E.01157
G1 X137.207 Y105.776 E.01157
G1 X137.5 Y106 E.01157
G1 X137.724 Y106.293 E.01157
G1 X137.865 Y106.634 E.01157
G1 X137.914 Y107 E.01157
G1 X137.865 Y107.366 E.01157
G1 X137.724 Y107.707 E.01157
G1 X137.5 Y108 E.01157
G1 X137.207 Y108.224 E.01157
G1 X136.866 Y108.365 E.01157
G1 X136.5 Y108.414 E.01157
G1 X136.134 Y108.365 E.01157
G1 X135.793 Y108.224 E.01157
G1 X135.5 Y108 E.01157
G1 X135.276 Y107.707 E.01157
G1 X135.135 Y107.366 E.01157
G1 X135.086 Y107 E.01157
G1 X135.135 Y106.634 E.01157
G1 X135.253 Y106.349 E.00969
G1 X135.091 Y105.974 F10800
;WIPE_START
G1 F8640
G1 X135.5 Y106 E-.09865
G1 X135.795 Y105.774 E-.08585
G1 X136.172 Y105.63 E-.09305
G1 X136.5 Y105.586 E-.07647
G1 X136.866 Y105.635 E-.08521
G1 X137.207 Y105.776 E-.0852
G1 X137.5 Y106 E-.0852
G1 X137.724 Y106.293 E-.08521
G1 X137.832 Y106.554 E-.06516
;WIPE_END
G1 E-.04 F2100
G1 Z.6 F10800
G1 X138.336 Y105.852
G1 Z.2
G1 E.8 F2100
;TYPE:Perimeter
G1 F1200
G1 X138.037 Y105.463 E.01537
G1 X137.587 Y105.117 E.0178
G1 X137.063 Y104.9 E.0178
G1 X136.5 Y104.826 E.0178
G1 X135.985 Y104.894 E.0163
G1 X135.423 Y105.109 E.01886
G1 X134.963 Y105.463 E.0182
G1 X134.664 Y105.852 E.01537
G1 X134.664 Y97.336 E.267
G1 X115.336 Y97.336 E.60603
G1 X115.336 Y105.852 E.267
G1 X115.066 Y105.501 E.01387
G1 X114.599 Y105.122 E.01886
G1 X114.063 Y104.9 E.0182
G1 X113.5 Y104.826 E.0178
G1 X112.985 Y104.894 E.0163
G1 X112.423 Y105.109 E.01886
G1 X111.963 Y105.463 E.0182
G1 X111.664 Y105.852 E.01537
G1 X111.664 Y95.164 E.3351
G1 X138.336 Y95.164 E.83627
G1 X138.336 Y105.792 E.33321
;WIPE_START
M73 Q0 S72
G1 F8640
G1 X138.037 Y105.463 E-.10256
G1 X137.587 Y105.117 E-.13105
G1 X137.063 Y104.9 E-.13105
G1 X136.5 Y104.826 E-.13106
G1 X135.985 Y104.894 E-.12002
G1 X135.423 Y105.109 E-.13891
G1 X135.405 Y105.123 E-.00535
;WIPE_END
G1 E-.04 F2100
G1 Z.6 F10800
G1 X134.287 Y97.736
G1 Z.2
G1 E.8 F2100
G1 F1200
G1 X134.287 Y112.287 E.45624
G1 X115.713 Y112.287 E.58238
G1 X115.713 Y97.713 E.45696
G1 X134.25 Y97.713 E.58122
G1 X133.91 Y98.09 F10800
;TYPE:External perimeter
G1 F1200
G1 X133.91 Y111.91 E.43332
G1 X116.09 Y111.91 E.55873
G1 X116.09 Y98.09 E.43332
G1 X133.85 Y98.09 E.55685
G1 X134.3 Y98.003 F10800
;WIPE_START
G1 F8640
G1 X133.864 Y101.381 E-.76
;WIPE_END
G1 E-.04 F2100
G1 Z.6 F10800
G1 X115.188 Y106.427
G1 Z.2
G1 E.8 F2100
;TYPE:Perimeter
G1 F1200
G1 X115.233 Y106.536 E.0037
G1 X115.294 Y107 E.01468
G1 X115.233 Y107.464 E.01468
G1 X115.051 Y107.904 E.01493
G1 X114.735 Y108.294 E.01575
G1 X114.397 Y108.554 E.01334
G1 X113.964 Y108.733 E.01468
G1 X113.5 Y108.794 E.01468
G1 X113.036 Y108.733 E.01468
G1 X112.596 Y108.551 E.01493
G1 X112.205 Y108.235 E.01575
G1 X111.946 Y107.897 E.01334
G1 X111.767 Y107.464 E.01468
G1 X111.706 Y107 E.01468
G1 X111.767 Y106.536 E.01468
G1 X111.946 Y106.103 E.01468
G1 X112.232 Y105.732 E.01468
G1 X112.609 Y105.442 E.01493
G1 X113.078 Y105.262 E.01575
G1 X113.5 Y105.206 E.01334
G1 X113.964 Y105.267 E.01468
G1 X114.404 Y105.449 E.01493
G1 X114.795 Y105.765 E.01575
G1 X115.054 Y106.103 E.01334
G1 X115.165 Y106.371 E.0091
G1 X114.724 Y106.293 F10800
;TYPE:External perimeter
G1 F1200
G1 X114.865 Y106.634 E.01157
G1 X114.914 Y107 E.01157
G1 X114.865 Y107.366 E.01157
G1 X114.723 Y107.709 E.01166
G1 X114.47 Y108.023 E.01263
G1 X114.207 Y108.224 E.01039
G1 X113.866 Y108.365 E.01157
G1 X113.5 Y108.414 E.01157
G1 X113.134 Y108.365 E.01157
G1 X112.791 Y108.223 E.01166
G1 X112.477 Y107.97 E.01263
G1 X112.276 Y107.707 E.01039
G1 X112.135 Y107.366 E.01157
G1 X112.086 Y107 E.01157
G1 X112.135 Y106.634 E.01157
G1 X112.276 Y106.293 E.01157
G1 X112.5 Y106 E.01157
G1 X112.795 Y105.774 E.01166
G1 X113.172 Y105.63 E.01264
G1 X113.5 Y105.586 E.01038
G1 X113.866 Y105.635 E.01157
G1 X114.209 Y105.777 E.01166
G1 X114.523 Y106.03 E.01263
G1 X114.688 Y106.246 E.0085
G1 X115.093 Y106.293 F10800
;WIPE_START
G1 F8640
G1 X114.865 Y106.634 E-.09865
G1 X114.914 Y107 E-.08521
G1 X114.865 Y107.366 E-.08521
G1 X114.723 Y107.709 E-.08585
G1 X114.47 Y108.023 E-.09304
G1 X114.207 Y108.224 E-.07648
G1 X113.866 Y108.365 E-.0852
G1 X113.5 Y108.414 E-.08521
G1 X113.22 Y108.377 E-.06516
;WIPE_END
G1 E-.04 F2100
G1 Z.6 F10800
G1 X111.664 Y114.036
G1 Z.2
G1 E.8 F2100
;TYPE:Perimeter
G1 F1200
G1 X111.664 Y108.148 E.1846
G1 X111.934 Y108.499 E.01387
G1 X112.401 Y108.878 E.01886
G1 X112.937 Y109.1 E.0182
G1 X113.5 Y109.174 E.0178
G1 X114.063 Y109.1 E.0178
G1 X114.587 Y108.883 E.0178
G1 X115 Y108.566 E.0163
G1 X115.336 Y108.151 E.01676
G1 X115.336 Y112.664 E.14151
G1 X134.664 Y112.664 E.60603
G1 X134.664 Y108.148 E.14159
G1 X134.963 Y108.537 E.01537
G1 X135.413 Y108.883 E.0178
G1 X135.937 Y109.1 E.0178
G1 X136.5 Y109.174 E.0178
G1 X137.063 Y109.1 E.0178
G1 X137.587 Y108.883 E.0178
G1 X138.037 Y108.537 E.0178
G1 X138.336 Y108.148 E.01537
G1 X138.336 Y114.836 E.20968
G1 X111.664 Y114.836 E.83627
G1 X111.664 Y114.096 E.0232
G1 X111.287 Y114.813 F10800
G1 F1200
G1 X111.287 Y94.787 E.6279
G1 X138.713 Y94.787 E.85992
G1 X138.713 Y115.213 E.64044
G1 X111.287 Y115.213 E.85992
G1 X111.287 Y114.873 E.01066
M73 Q1 S72
G1 X110.91 Y115.59 F10800
;TYPE:External perimeter
G1 F1200
G1 X110.91 Y94.41 E.66408
G1 X139.09 Y94.41 E.88356
M73 P1 R72
G1 X139.09 Y115.59 E.66408
G1 X110.97 Y115.59 E.88168
G1 X111.032 Y115.209 F10800
;WIPE_START
G1 F8640
G1 X110.961 Y112.299 E-.76
;WIPE_END
G1 E-.04 F2100
G1 Z.6 F10800
G1 X111.59 Y107.975
G1 Z.2
G1 E.8 F2100
;TYPE:Gap fill
;WIDTH:0.155142
G1 F1200
G1 X111.53 Y107.521 E.00427
;WIDTH:0.151334
G1 X111.514 Y107.287 E.00211
;WIDTH:0.122328
G1 X111.499 Y107.053 E.00155
G1 X111.499 Y106.947 F10800
;WIDTH:0.122329
G1 F1200
G1 X111.514 Y106.713 E.00155
;WIDTH:0.151338
G1 X111.53 Y106.479 E.00211
;WIDTH:0.155145
G1 X111.532 Y106.465 E.00014
;WIDTH:0.196667
G1 X111.56 Y106.322 E.00187
;WIDTH:0.23819
G1 X111.589 Y106.178 E.00237
;WIDTH:0.279713
G1 X111.617 Y106.035 E.00288
;WIPE_START
G1 F8640
G1 X111.589 Y106.178 E-.03376
;WIPE_END
G1 E-.76624 F2100
G1 Z.6 F10800
G1 X115.41 Y106.025
G1 Z.2
G1 E.8 F2100
;WIDTH:0.15514
G1 F1200
G1 X115.47 Y106.479 E.00427
;WIDTH:0.151332
G1 X115.486 Y106.713 E.00211
;WIDTH:0.122327
G1 X115.501 Y106.947 E.00155
G1 X115.501 Y107.053 F10800
;WIDTH:0.122328
G1 F1200
G1 X115.486 Y107.287 E.00155
;WIDTH:0.151336
G1 X115.47 Y107.521 E.00211
;WIDTH:0.155143
G1 X115.468 Y107.535 E.00014
;WIDTH:0.178791
G1 X115.456 Y107.594 E.00068
;WIDTH:0.178793
G1 X115.374 Y107.733 E.00183
;WIDTH:0.136056
G1 X115.291 Y107.872 E.00125
;WIPE_START
G1 F8640
G1 X115.374 Y107.733 E-.03731
;WIPE_END
G1 E-.76269 F2100
G1 Z.6 F10800
G1 X134.499 Y107.053
G1 Z.2
G1 E.8 F2100
;WIDTH:0.122322
G1 F1200
G1 X134.514 Y107.287 E.00155
;WIDTH:0.151324
G1 X134.53 Y107.521 E.00211
;WIDTH:0.15513
G1 X134.59 Y107.975 E.00427
;WIPE_START
G1 F8640
G1 X134.53 Y107.521 E-.10574
;WIPE_END
G1 E-.69426 F2100
G1 Z.6 F10800
G1 X134.499 Y106.947
G1 Z.2
G1 E.8 F2100
;WIDTH:0.122322
G1 F1200
G1 X134.514 Y106.713 E.00155
;WIDTH:0.151324
G1 X134.53 Y106.479 E.00211
;WIDTH:0.155132
G1 X134.59 Y106.025 E.00427
;WIPE_START
G1 F8640
G1 X134.53 Y106.479 E-.10574
;WIPE_END
G1 E-.69426 F2100
G1 Z.6 F10800
G1 X138.383 Y106.035
G1 Z.2
G1 E.8 F2100
;WIDTH:0.279712
G1 F1200
G1 X138.411 Y106.178 E.00288
;WIDTH:0.238186
G1 X138.44 Y106.322 E.00237
;WIDTH:0.19666
G1 X138.468 Y106.465 E.00187
;WIDTH:0.155134
G1 X138.47 Y106.479 E.00014
;WIDTH:0.151326
G1 X138.486 Y106.713 E.00211
;WIDTH:0.122323
G1 X138.501 Y106.947 E.00155
G1 X138.501 Y107.053 F10800
;WIDTH:0.122323
G1 F1200
G1 X138.486 Y107.287 E.00155
;WIDTH:0.151326
G1 X138.47 Y107.521 E.00211
;WIDTH:0.155134
G1 X138.41 Y107.975 E.00427
;WIPE_START
G1 F8640
G1 X138.47 Y107.521 E-.10574
;WIPE_END
G1 E-.69426 F2100
G1 Z.6 F10800
G1 X137.8 Y108.862
G1 Z.2
G1 E.8 F2100
;TYPE:Solid infill
;WIDTH:0.422268
G1 F1200
G1 X138.053 Y109.116 E.0113
G1 X138.053 Y109.652 E.01692
G1 X137.589 Y109.188 E.0207
G1 X137.21 Y109.345 E.01295
G1 X138.053 Y110.189 E.03762
G1 X138.053 Y110.725 E.01692
G1 X136.754 Y109.426 E.05795
G1 X136.5 Y109.459 E.00808
G1 X136.213 Y109.422 E.00913
G1 X138.053 Y111.262 E.08208
G1 X138.053 Y111.798 E.01692
G1 X135.466 Y109.211 E.11541
G1 X135.27 Y109.13 E.00668
G1 X134.947 Y108.882 E.01286
G1 X134.947 Y109.229 E.01094
G1 X138.053 Y112.335 E.13856
G1 X138.053 Y112.871 E.01692
G1 X134.947 Y109.765 E.13856
G1 X134.947 Y110.301 E.01692
G1 X138.053 Y113.408 E.13856
G1 X138.053 Y113.944 E.01692
G1 X134.947 Y110.838 E.13856
G1 X134.947 Y111.374 E.01692
G1 X138.053 Y114.481 E.13856
G1 X138.053 Y114.553 E.00229
G1 X137.589 Y114.553 E.01464
G1 X134.947 Y111.911 E.11786
G1 X134.947 Y112.447 E.01692
G1 X137.053 Y114.553 E.09393
G1 X136.516 Y114.553 E.01692
G1 X134.91 Y112.947 E.07165
G1 X134.374 Y112.947 E.01692
G1 X135.98 Y114.553 E.07165
G1 X135.443 Y114.553 E.01692
G1 X133.837 Y112.947 E.07165
G1 X133.301 Y112.947 E.01692
G1 X134.907 Y114.553 E.07165
G1 X134.37 Y114.553 E.01692
G1 X132.764 Y112.947 E.07165
G1 X132.228 Y112.947 E.01692
G1 X133.834 Y114.553 E.07165
G1 X133.297 Y114.553 E.01692
G1 X131.691 Y112.947 E.07165
G1 X131.155 Y112.947 E.01692
G1 X132.761 Y114.553 E.07165
G1 X132.224 Y114.553 E.01692
G1 X130.618 Y112.947 E.07165
G1 X130.082 Y112.947 E.01692
G1 X131.688 Y114.553 E.07165
G1 X131.151 Y114.553 E.01692
G1 X129.545 Y112.947 E.07165
G1 X129.009 Y112.947 E.01692
G1 X130.615 Y114.553 E.07165
G1 X130.078 Y114.553 E.01692
G1 X128.472 Y112.947 E.07165
G1 X127.936 Y112.947 E.01692
G1 X129.542 Y114.553 E.07165
G1 X129.005 Y114.553 E.01692
G1 X127.399 Y112.947 E.07165
G1 X126.863 Y112.947 E.01692
G1 X128.469 Y114.553 E.07165
G1 X127.932 Y114.553 E.01692
G1 X126.326 Y112.947 E.07165
G1 X125.79 Y112.947 E.01692
G1 X127.396 Y114.553 E.07165
G1 X126.859 Y114.553 E.01692
G1 X125.253 Y112.947 E.07165
G1 X124.717 Y112.947 E.01692
G1 X126.323 Y114.553 E.07165
G1 X125.787 Y114.553 E.01692
G1 X124.18 Y112.947 E.07165
G1 X123.644 Y112.947 E.01692
G1 X125.25 Y114.553 E.07165
G1 X124.714 Y114.553 E.01692
G1 X123.107 Y112.947 E.07165
G1 X122.571 Y112.947 E.01692
G1 X124.177 Y114.553 E.07165
G1 X123.641 Y114.553 E.01692
G1 X122.035 Y112.947 E.07165
G1 X121.498 Y112.947 E.01692
G1 X123.104 Y114.553 E.07165
G1 X122.568 Y114.553 E.01692
G1 X120.962 Y112.947 E.07165
G1 X120.425 Y112.947 E.01692
G1 X122.031 Y114.553 E.07165
G1 X121.495 Y114.553 E.01692
G1 X119.889 Y112.947 E.07165
G1 X119.352 Y112.947 E.01692
G1 X120.958 Y114.553 E.07165
G1 X120.422 Y114.553 E.01692
G1 X118.816 Y112.947 E.07165
G1 X118.279 Y112.947 E.01692
G1 X119.885 Y114.553 E.07165
G1 X119.349 Y114.553 E.01692
G1 X117.743 Y112.947 E.07165
G1 X117.206 Y112.947 E.01692
G1 X118.812 Y114.553 E.07165
G1 X118.276 Y114.553 E.01692
G1 X116.67 Y112.947 E.07165
G1 X116.133 Y112.947 E.01692
G1 X117.739 Y114.553 E.07165
G1 X117.203 Y114.553 E.01692
G1 X115.427 Y112.777 E.07922
;WIPE_START
G1 F8640
G1 X117.203 Y114.553 E-.57988
G1 X117.739 Y114.553 E-.12387
G1 X117.567 Y114.381 E-.05625
;WIPE_END
G1 E-.04 F2100
G1 Z.6 F10800
G1 X115.223 Y109.354
G1 Z.2
G1 E.8 F2100
G1 F1200
G1 X114.882 Y109.013 E.01521
G1 X114.73 Y109.13 E.00605
G1 X114.541 Y109.208 E.00646
G1 X115.053 Y109.721 E.02286
G1 X115.053 Y110.257 E.01692
G1 X114.161 Y109.365 E.03979
G1 X113.693 Y109.434 E.01492
G1 X115.053 Y110.794 E.06066
G1 X115.053 Y111.33 E.01692
G1 X113.134 Y109.411 E.0856
G1 X112.863 Y109.376 E.00861
G1 X112.349 Y109.162 E.01757
G1 X115.053 Y111.867 E.12064
G1 X115.053 Y112.403 E.01692
G1 X111.947 Y109.297 E.13856
G1 X111.947 Y109.834 E.01692
G1 X116.666 Y114.553 E.21053
G1 X116.13 Y114.553 E.01692
G1 X111.947 Y110.37 E.1866
G1 X111.947 Y110.907 E.01692
G1 X115.593 Y114.553 E.16266
G1 X115.057 Y114.553 E.01692
G1 X111.947 Y111.443 E.13873
G1 X111.947 Y111.98 E.01692
G1 X114.52 Y114.553 E.1148
G1 X113.984 Y114.553 E.01692
G1 X111.947 Y112.516 E.09087
G1 X111.947 Y113.052 E.01692
G1 X113.448 Y114.553 E.06694
G1 X112.911 Y114.553 E.01692
G1 X111.947 Y113.589 E.04301
G1 X111.947 Y114.125 E.01692
G1 X112.544 Y114.723 E.02664
;WIPE_START
G1 F8640
G1 X111.947 Y114.125 E-.19505
G1 X111.947 Y113.589 E-.12387
G1 X112.911 Y114.553 E-.31482
G1 X113.448 Y114.553 E-.12387
G1 X113.44 Y114.546 E-.00238
;WIPE_END
G1 E-.04 F2100
G1 Z.6 F10800
G1 X137.45 Y95.277
G1 Z.2
G1 E.8 F2100
;WIDTH:0.424812
G1 F1200
G1 X138.053 Y95.88 E.02707
G1 X138.053 Y96.42 E.01715
G1 X137.08 Y95.447 E.0437
G1 X136.54 Y95.447 E.01715
