; generated by PrusaSlicer 2.4.0+win64 on 2022-02-11 at 17:41:12 UTC

; 

; external perimeters extrusion width = 0.45mm
; perimeters extrusion width = 0.45mm
; infill extrusion width = 0.45mm
; solid infill extrusion width = 0.45mm
; top infill extrusion width = 0.40mm
; first layer extrusion width = 0.42mm

M73 P0 R78
M73 Q0 S78
M201 X1000 Y1000 Z200 E5000 ; sets maximum accelerations, mm/sec^2
M203 X200 Y200 Z12 E120 ; sets maximum feedrates, mm/sec
M204 P1250 R1250 T1250 ; sets acceleration (P, T) and retract acceleration (R), mm/sec^2
M205 X8.00 Y8.00 Z0.40 E4.50 ; sets the jerk limits, mm/sec
M205 S0 T0 ; sets the minimum extruding and travel feed rate, mm/sec
M107
;TYPE:Custom
M862.3 P "MK3S" ; printer model check
M862.1 P0.4 ; nozzle diameter check
M115 U3.10.1 ; tell printer latest fw version
G90 ; use absolute coordinates
M83 ; extruder relative mode
M104 S215 ; set extruder temp
M140 S60 ; set bed temp
M190 S60 ; wait for bed temp
M109 S215 ; wait for extruder temp
G28 W ; home all without mesh bed level
G80 ; mesh bed leveling
G1 Y-3.0 F1000.0 ; go outside print area
G92 E0.0
G1 X60.0 E9.0 F1000.0 ; intro line
G1 X100.0 E12.5 F1000.0 ; intro line
G92 E0.0
M221 S95

; Don't change E values below. Excessive value can damage the printer.
M907 E430 ; set extruder motor current
G21 ; set units to millimeters
G90 ; use absolute coordinates
M83 ; use relative distances for extrusion
M900 K0.05 ; Filament gcode LA 1.5
M900 K30 ; Filament gcode LA 1.0
M107
;LAYER_CHANGE
;Z:0.2
;HEIGHT:0.2
;BEFORE_LAYER_CHANGE
G92 E0.0
;0.2


G1 E-.8 F2100
G1 Z.4 F10800
;AFTER_LAYER_CHANGE
;0.2
G1 X108.139 Y95.583
G1 Z.2
G1 E.8 F2100
M204 S1000
;TYPE:Skirt/Brim
;WIDTH:0.42
G1 F1200
G1 X109.205 Y94.569 E.04612
G1 X110.5 Y94.246 E.04186
G1 X139.5 Y94.246 E.90927
G1 X140.917 Y94.639 E.04612
G1 X141.931 Y95.705 E.04612
G1 X142.254 Y97 E.04186
G1 X142.254 Y113 E.50167
G1 X141.861 Y114.417 E.04612
G1 X140.795 Y115.431 E.04612
G1 X139.5 Y115.754 E.04186
G1 X110.5 Y115.754 E.90927
G1 X109.083 Y115.361 E.04612
G1 X108.069 Y114.295 E.04612
G1 X107.746 Y113 E.04186
G1 X107.746 Y97 E.50167
G1 X108.123 Y95.64 E.04424
G1 X108.497 Y95.752 F10800
G1 F1200
G1 X108.515 Y95.693 E.00195
G1 X109.56 Y94.817 E.04278
G1 X110.5 Y94.623 E.03008
G1 X139.5 Y94.623 E.90927
G1 X140.807 Y95.015 E.04278
G1 X141.683 Y96.06 E.04278
G1 X141.877 Y97 E.03008
G1 X141.877 Y113 E.50167
G1 X141.485 Y114.307 E.04278
G1 X140.44 Y115.183 E.04278
G1 X139.5 Y115.377 E.03008
G1 X110.5 Y115.377 E.90927
G1 X109.193 Y114.985 E.04278
G1 X108.317 Y113.94 E.04278
G1 X108.123 Y113 E.03008
G1 X108.123 Y97 E.50167
G1 X108.479 Y95.81 E.03895
; printing object Cage_batterie_3,7v.stl id:0 copy 0
;WIPE_START
G1 F8640
G1 X108.515 Y95.693 E-.0282
G1 X109.56 Y94.817 E-.31505
G1 X110.5 Y94.623 E-.22155
G1 X111.345 Y94.623 E-.1952
;WIPE_END
G1 E-.04 F2100
G1 Z.6 F10800
G1 X134.939 Y101.12
G1 Z.2
G1 E.8 F2100
;TYPE:Perimeter
G1 F1200
G1 X135.232 Y100.732 E.01525
G1 X135.609 Y100.442 E.01493
G1 X136.078 Y100.262 E.01575
G1 X136.5 Y100.206 E.01334
G1 X136.964 Y100.267 E.01468
G1 X137.397 Y100.446 E.01468
G1 X137.768 Y100.732 E.01468
G1 X138.054 Y101.103 E.01468
G1 X138.233 Y101.536 E.01468
G1 X138.294 Y102 E.01468
G1 X138.233 Y102.464 E.01468
G1 X138.054 Y102.897 E.01468
G1 X137.768 Y103.268 E.01468
G1 X137.397 Y103.554 E.01468
G1 X136.964 Y103.733 E.01468
G1 X136.5 Y103.794 E.01468
G1 X136.036 Y103.733 E.01468
G1 X135.603 Y103.554 E.01468
G1 X135.232 Y103.268 E.01468
G1 X134.946 Y102.897 E.01468
G1 X134.767 Y102.464 E.01468
G1 X134.706 Y102 E.01468
G1 X134.767 Y101.536 E.01468
G1 X134.916 Y101.176 E.01222
G1 X135.135 Y101.634 F10800
;TYPE:External perimeter
G1 F1200
G1 X135.276 Y101.293 E.01157
G1 X135.5 Y101 E.01157
G1 X135.795 Y100.774 E.01166
G1 X136.172 Y100.63 E.01263
G1 X136.5 Y100.586 E.01038
G1 X136.866 Y100.635 E.01157
G1 X137.207 Y100.776 E.01157
G1 X137.5 Y101 E.01157
G1 X137.724 Y101.293 E.01157
G1 X137.865 Y101.634 E.01157
G1 X137.914 Y102 E.01157
G1 X137.865 Y102.366 E.01157
G1 X137.724 Y102.707 E.01157
G1 X137.5 Y103 E.01157
G1 X137.207 Y103.224 E.01157
G1 X136.866 Y103.365 E.01157
G1 X136.5 Y103.414 E.01157
G1 X136.134 Y103.365 E.01157
G1 X135.793 Y103.224 E.01157
G1 X135.5 Y103 E.01157
G1 X135.276 Y102.707 E.01157
G1 X135.135 Y102.366 E.01157
G1 X135.086 Y102 E.01157
G1 X135.127 Y101.694 E.00969
G1 X134.874 Y101.373 F10800
;WIPE_START
G1 F8640
G1 X135.276 Y101.293 E-.09865
G1 X135.5 Y101 E-.08521
G1 X135.795 Y100.774 E-.08585
G1 X136.172 Y100.63 E-.09305
G1 X136.5 Y100.586 E-.07647
G1 X136.866 Y100.635 E-.08521
G1 X137.207 Y100.776 E-.0852
G1 X137.5 Y101 E-.08521
G1 X137.671 Y101.224 E-.06516
;WIPE_END
G1 E-.04 F2100
G1 Z.6 F10800
G1 X134.164 Y100.382
G1 Z.2
G1 E.8 F2100
;TYPE:Perimeter
G1 F1200
G1 X134.164 Y109.664 E.29105
G1 X115.836 Y109.664 E.57467
G1 X115.836 Y100.336 E.29248
G1 X134.15 Y100.336 E.57423
G1 X133.787 Y100.736 F10800
G1 F1200
G1 X133.787 Y109.287 E.26812
G1 X116.213 Y109.287 E.55103
G1 X116.213 Y100.713 E.26884
G1 X133.75 Y100.713 E.54986
G1 X133.41 Y101.09 F10800
;TYPE:External perimeter
G1 F1200
G1 X133.41 Y108.91 E.24519
G1 X116.59 Y108.91 E.52738
G1 X116.59 Y101.09 E.24519
G1 X133.35 Y101.09 E.5255
G1 X133.806 Y101.032 F10800
;WIPE_START
G1 F8640
G1 X133.375 Y104.381 E-.76
;WIPE_END
G1 E-.04 F2100
G1 Z.6 F10800
G1 X115.549 Y101.314
G1 Z.2
G1 E.8 F2100
;TYPE:Perimeter
G1 F1200
G1 X115.383 Y100.913 E.01362
G1 X115.066 Y100.5 E.0163
G1 X114.599 Y100.122 E.01886
G1 X114.063 Y99.9 E.0182
G1 X113.5 Y99.826 E.0178
G1 X112.985 Y99.894 E.0163
G1 X112.423 Y100.109 E.01886
G1 X111.963 Y100.463 E.0182
G1 X111.664 Y100.852 E.01537
G1 X111.664 Y98.164 E.08426
G1 X138.336 Y98.164 E.83627
G1 X138.336 Y100.852 E.08426
G1 X138.037 Y100.463 E.01537
G1 X137.587 Y100.117 E.0178
G1 X137.063 Y99.9 E.0178
G1 X136.5 Y99.826 E.0178
G1 X135.985 Y99.894 E.0163
G1 X135.423 Y100.109 E.01886
G1 X134.963 Y100.463 E.0182
G1 X134.617 Y100.913 E.0178
G1 X134.4 Y101.437 E.0178
G1 X134.326 Y102 E.0178
G1 X134.4 Y102.563 E.0178
G1 X134.617 Y103.087 E.0178
G1 X134.963 Y103.537 E.0178
G1 X135.413 Y103.883 E.0178
G1 X135.937 Y104.1 E.0178
G1 X136.5 Y104.174 E.0178
G1 X137.063 Y104.1 E.0178
G1 X137.587 Y103.883 E.0178
G1 X138.037 Y103.537 E.0178
G1 X138.336 Y103.148 E.01537
G1 X138.336 Y111.836 E.27239
G1 X111.664 Y111.836 E.83627
G1 X111.664 Y103.148 E.27239
G1 X111.934 Y103.499 E.01387
G1 X112.401 Y103.878 E.01886
G1 X112.937 Y104.1 E.0182
G1 X113.5 Y104.174 E.0178
G1 X114.063 Y104.1 E.0178
G1 X114.587 Y103.883 E.0178
G1 X115 Y103.566 E.0163
G1 X115.378 Y103.099 E.01886
G1 X115.6 Y102.563 E.0182
G1 X115.674 Y102 E.0178
G1 X115.6 Y101.437 E.0178
G1 X115.572 Y101.37 E.00229
;WIPE_START
G1 F8640
G1 X115.383 Y100.913 E-.11417
G1 X115.066 Y100.5 E-.12003
G1 X114.599 Y100.122 E-.1389
G1 X114.063 Y99.9 E-.13401
G1 X113.5 Y99.826 E-.13106
G1 X112.985 Y99.894 E-.12002
G1 X112.977 Y99.896 E-.00181
;WIPE_END
G1 E-.04 F2100
G1 Z.6 F10800
G1 X115.235 Y102.446
G1 Z.2
G1 E.8 F2100
G1 F1200
G1 X115.051 Y102.904 E.01549
G1 X114.735 Y103.294 E.01575
G1 X114.397 Y103.554 E.01334
G1 X113.964 Y103.733 E.01468
G1 X113.5 Y103.794 E.01468
G1 X113.036 Y103.733 E.01468
G1 X112.596 Y103.551 E.01493
G1 X112.205 Y103.235 E.01575
G1 X111.946 Y102.897 E.01334
G1 X111.767 Y102.464 E.01468
G1 X111.706 Y102 E.01468
G1 X111.767 Y101.536 E.01468
G1 X111.946 Y101.103 E.01468
G1 X112.232 Y100.732 E.01468
G1 X112.609 Y100.442 E.01493
G1 X113.078 Y100.262 E.01575
G1 X113.5 Y100.206 E.01334
G1 X113.964 Y100.267 E.01468
G1 X114.404 Y100.449 E.01493
G1 X114.794 Y100.765 E.01575
G1 X115.054 Y101.103 E.01334
G1 X115.233 Y101.536 E.01468
G1 X115.294 Y102 E.01468
G1 X115.243 Y102.386 E.01222
G1 X114.914 Y102 F10800
;TYPE:External perimeter
G1 F1200
G1 X114.865 Y102.366 E.01157
G1 X114.723 Y102.709 E.01166
G1 X114.47 Y103.023 E.01263
G1 X114.207 Y103.224 E.01039
G1 X113.866 Y103.365 E.01157
G1 X113.5 Y103.414 E.01157
G1 X113.134 Y103.365 E.01157
G1 X112.791 Y103.223 E.01166
G1 X112.477 Y102.97 E.01263
G1 X112.276 Y102.707 E.01039
G1 X112.135 Y102.366 E.01157
G1 X112.086 Y102 E.01157
G1 X112.135 Y101.634 E.01157
G1 X112.276 Y101.293 E.01157
G1 X112.5 Y101 E.01157
G1 X112.795 Y100.774 E.01166
G1 X113.172 Y100.63 E.01264
G1 X113.5 Y100.586 E.01038
G1 X113.866 Y100.635 E.01157
G1 X114.209 Y100.777 E.01166
G1 X114.523 Y101.03 E.01263
G1 X114.724 Y101.293 E.01039
G1 X114.865 Y101.634 E.01157
G1 X114.906 Y101.941 E.00969
G1 X115.233 Y102.185 F10800
;WIPE_START
G1 F8640
G1 X114.865 Y102.366 E-.09865
G1 X114.723 Y102.709 E-.08585
G1 X114.47 Y103.023 E-.09304
G1 X114.207 Y103.224 E-.07648
G1 X113.866 Y103.365 E-.0852
G1 X113.5 Y103.414 E-.08521
G1 X113.134 Y103.365 E-.08521
G1 X112.791 Y103.223 E-.08585
G1 X112.574 Y103.047 E-.06451
;WIPE_END
G1 E-.04 F2100
G1 Z.6 F10800
G1 X111.687 Y97.787
G1 Z.2
G1 E.8 F2100
;TYPE:Perimeter
G1 F1200
G1 X138.713 Y97.787 E.84738
G1 X138.713 Y112.213 E.45231
G1 X111.287 Y112.213 E.85992
G1 X111.287 Y97.787 E.45231
M73 P0 R77
G1 X111.627 Y97.787 E.01066
G1 X110.91 Y97.41 F10800
;TYPE:External perimeter
G1 F1200
G1 X139.09 Y97.41 E.88356
G1 X139.09 Y112.59 E.47596
G1 X110.91 Y112.59 E.88356
G1 X110.91 Y97.47 E.47408
G1 X111.305 Y97.476 F10800
;WIPE_START
G1 F8640
G1 X114.201 Y97.463 E-.76
;WIPE_END
G1 E-.04 F2100
G1 Z.6 F10800
G1 X111.617 Y101.035
G1 Z.2
G1 E.8 F2100
;TYPE:Gap fill
;WIDTH:0.279713
G1 F1200
G1 X111.589 Y101.178 E.00288
;WIDTH:0.23819
G1 X111.56 Y101.322 E.00237
;WIDTH:0.196667
G1 X111.532 Y101.465 E.00187
;WIDTH:0.155145
G1 X111.53 Y101.479 E.00014
;WIDTH:0.151338
G1 X111.514 Y101.713 E.00211
;WIDTH:0.122329
G1 X111.499 Y101.947 E.00155
G1 X111.499 Y102.053 F10800
;WIDTH:0.122328
G1 F1200
G1 X111.514 Y102.287 E.00155
;WIDTH:0.151334
G1 X111.53 Y102.521 E.00211
;WIDTH:0.155142
G1 X111.59 Y102.975 E.00427
;WIPE_START
G1 F8640
G1 X111.53 Y102.521 E-.10574
;WIPE_END
G1 E-.69426 F2100
G1 Z.6 F10800
G1 X115.638 Y100.954
G1 Z.2
G1 E.8 F2100
;WIDTH:0.154104
G1 F1200
G1 X115.533 Y100.566 E.00372
;WIPE_START
G1 F8640
G1 X115.638 Y100.954 E-.09283
;WIPE_END
G1 E-.70717 F2100
G1 Z.6 F10800
G1 X134.362 Y100.954
G1 Z.2
G1 E.8 F2100
;WIDTH:0.154112
G1 F1200
G1 X134.467 Y100.566 E.00372
;WIPE_START
G1 F8640
G1 X134.362 Y100.954 E-.09283
;WIPE_END
G1 E-.70717 F2100
G1 Z.6 F10800
G1 X134.362 Y103.046
G1 Z.2
G1 E.8 F2100
;WIDTH:0.154108
G1 F1200
G1 X134.467 Y103.434 E.00372
;WIPE_START
G1 F8640
G1 X134.362 Y103.046 E-.09283
;WIPE_END
G1 E-.70717 F2100
G1 Z.6 F10800
G1 X138.223 Y104.282
G1 Z.2
G1 E.8 F2100
;TYPE:Solid infill
;WIDTH:0.420681
G1 F1200
G1 X137.923 Y103.982 E.01333
G1 X137.73 Y104.13 E.00764
G1 X137.593 Y104.187 E.00465
G1 X138.053 Y104.647 E.02044
G1 X138.053 Y105.181 E.01678
G1 X137.215 Y104.343 E.03722
G1 X137.137 Y104.376 E.00267
G1 X136.763 Y104.425 E.01184
G1 X138.053 Y105.715 E.05732
G1 X138.053 Y106.249 E.01678
G1 X136.227 Y104.424 E.08111
G1 X135.863 Y104.376 E.01153
G1 X135.491 Y104.221 E.01267
G1 X138.053 Y106.784 E.11382
G1 X138.053 Y107.318 E.01678
M73 Q1 S78
G1 X134.463 Y103.728 E.15948
G1 X134.447 Y103.732 E.00052
M73 P1 R77
G1 X134.447 Y104.246 E.01614
G1 X138.053 Y107.852 E.16019
G1 X138.053 Y108.386 E.01678
G1 X134.447 Y104.78 E.16019
G1 X134.447 Y105.314 E.01678
G1 X138.053 Y108.921 E.16019
G1 X138.053 Y109.455 E.01678
G1 X134.447 Y105.849 E.16019
G1 X134.447 Y106.383 E.01678
G1 X138.053 Y109.989 E.16019
G1 X138.053 Y110.523 E.01678
G1 X134.447 Y106.917 E.16019
G1 X134.447 Y107.451 E.01678
G1 X138.053 Y111.057 E.16019
G1 X138.053 Y111.553 E.01557
G1 X138.014 Y111.553 E.00121
G1 X134.447 Y107.986 E.15847
G1 X134.447 Y108.52 E.01678
G1 X137.48 Y111.553 E.13474
G1 X136.946 Y111.553 E.01678
G1 X134.447 Y109.054 E.11101
G1 X134.447 Y109.588 E.01678
G1 X136.412 Y111.553 E.08728
G1 X135.877 Y111.553 E.01678
G1 X134.271 Y109.947 E.07135
G1 X133.737 Y109.947 E.01678
G1 X135.343 Y111.553 E.07135
G1 X134.809 Y111.553 E.01678
M73 Q1 S77
G1 X133.203 Y109.947 E.07135
G1 X132.669 Y109.947 E.01678
G1 X134.275 Y111.553 E.07135
G1 X133.741 Y111.553 E.01678
G1 X132.134 Y109.947 E.07135
G1 X131.6 Y109.947 E.01678
G1 X133.206 Y111.553 E.07135
G1 X132.672 Y111.553 E.01678
G1 X131.066 Y109.947 E.07135
G1 X130.532 Y109.947 E.01678
G1 X132.138 Y111.553 E.07135
G1 X131.604 Y111.553 E.01678
G1 X129.998 Y109.947 E.07135
G1 X129.463 Y109.947 E.01678
G1 X131.069 Y111.553 E.07135
G1 X130.535 Y111.553 E.01678
G1 X128.929 Y109.947 E.07135
G1 X128.395 Y109.947 E.01678
G1 X130.001 Y111.553 E.07135
G1 X129.467 Y111.553 E.01678
G1 X127.861 Y109.947 E.07135
G1 X127.326 Y109.947 E.01678
G1 X128.932 Y111.553 E.07135
G1 X128.398 Y111.553 E.01678
G1 X126.792 Y109.947 E.07135
G1 X126.258 Y109.947 E.01678
G1 X127.864 Y111.553 E.07135
G1 X127.33 Y111.553 E.01678
G1 X125.724 Y109.947 E.07135
G1 X125.189 Y109.947 E.01678
G1 X126.795 Y111.553 E.07135
G1 X126.261 Y111.553 E.01678
G1 X124.655 Y109.947 E.07135
G1 X124.121 Y109.947 E.01678
G1 X125.727 Y111.553 E.07135
G1 X125.193 Y111.553 E.01678
G1 X123.587 Y109.947 E.07135
G1 X123.052 Y109.947 E.01678
G1 X124.659 Y111.553 E.07135
G1 X124.124 Y111.553 E.01678
G1 X122.518 Y109.947 E.07135
G1 X121.984 Y109.947 E.01678
G1 X123.59 Y111.553 E.07135
G1 X123.056 Y111.553 E.01678
G1 X121.45 Y109.947 E.07135
G1 X120.916 Y109.947 E.01678
G1 X122.522 Y111.553 E.07135
G1 X121.987 Y111.553 E.01678
G1 X120.381 Y109.947 E.07135
G1 X119.847 Y109.947 E.01678
G1 X121.453 Y111.553 E.07135
G1 X120.919 Y111.553 E.01678
G1 X119.313 Y109.947 E.07135
G1 X118.779 Y109.947 E.01678
G1 X120.385 Y111.553 E.07135
G1 X119.85 Y111.553 E.01678
G1 X118.244 Y109.947 E.07135
G1 X117.71 Y109.947 E.01678
G1 X119.316 Y111.553 E.07135
G1 X118.782 Y111.553 E.01678
G1 X117.176 Y109.947 E.07135
G1 X116.642 Y109.947 E.01678
G1 X118.248 Y111.553 E.07135
G1 X117.714 Y111.553 E.01678
G1 X115.938 Y109.777 E.07888
;WIPE_START
G1 F8640
G1 X117.714 Y111.553 E-.57988
G1 X118.248 Y111.553 E-.12336
G1 X118.074 Y111.379 E-.05677
;WIPE_END
G1 E-.04 F2100
G1 Z.6 F10800
G1 X115.723 Y103.686
G1 Z.2
G1 E.8 F2100
G1 F1200
G1 X115.471 Y103.434 E.01119
G1 X115.232 Y103.729 E.01193
G1 X115.553 Y104.05 E.01427
G1 X115.553 Y104.584 E.01678
G1 X114.938 Y103.97 E.0273
G1 X114.73 Y104.13 E.00826
G1 X114.613 Y104.178 E.00398
G1 X115.553 Y105.119 E.04177
G1 X115.553 Y105.653 E.01678
G1 X114.235 Y104.335 E.05855
G1 X114.137 Y104.376 E.00335
G1 X113.787 Y104.422 E.01106
G1 X115.553 Y106.187 E.07843
G1 X115.553 Y106.721 E.01678
G1 X113.259 Y104.428 E.10189
G1 X112.863 Y104.376 E.01254
G1 X112.538 Y104.241 E.01105
G1 X115.553 Y107.256 E.13392
G1 X115.553 Y107.79 E.01678
G1 X111.947 Y104.184 E.16019
G1 X111.947 Y104.718 E.01678
G1 X115.553 Y108.324 E.16019
G1 X115.553 Y108.858 E.01678
G1 X111.947 Y105.252 E.16019
G1 X111.947 Y105.786 E.01678
G1 X115.723 Y109.562 E.16773
;WIPE_START
G1 F8640
G1 X113.395 Y107.235 E-.76
;WIPE_END
G1 E-.04 F2100
G1 Z.6 F10800
G1 X117.349 Y111.723
G1 Z.2
G1 E.8 F2100
G1 F1200
G1 X111.947 Y106.321 E.23997
G1 X111.947 Y106.855 E.01678
G1 X116.645 Y111.553 E.2087
G1 X116.111 Y111.553 E.01678
G1 X111.947 Y107.389 E.18497
G1 X111.947 Y107.923 E.01678
G1 X115.577 Y111.553 E.16123
G1 X115.042 Y111.553 E.01678
G1 X111.947 Y108.458 E.1375
G1 X111.947 Y108.992 E.01678
G1 X114.508 Y111.553 E.11377
G1 X113.974 Y111.553 E.01678
G1 X111.947 Y109.526 E.09004
G1 X111.947 Y110.06 E.01678
G1 X113.44 Y111.553 E.06631
G1 X112.905 Y111.553 E.01678
G1 X111.947 Y110.595 E.04258
G1 X111.947 Y111.129 E.01678
G1 X112.541 Y111.723 E.02638
;WIPE_START
G1 F8640
G1 X111.947 Y111.129 E-.19394
G1 X111.947 Y110.595 E-.12336
G1 X112.905 Y111.553 E-.31298
G1 X113.44 Y111.553 E-.12336
G1 X113.42 Y111.534 E-.00637
;WIPE_END
G1 E-.04 F2100
G1 Z.6 F10800
G1 X138.41 Y102.975
G1 Z.2
G1 E.8 F2100
;TYPE:Gap fill
;WIDTH:0.155134
G1 F1200
G1 X138.47 Y102.521 E.00427
;WIDTH:0.151326
G1 X138.486 Y102.287 E.00211
;WIDTH:0.122323
G1 X138.501 Y102.053 E.00155
G1 X138.501 Y101.947 F10800
;WIDTH:0.122324
G1 F1200
G1 X138.486 Y101.713 E.00155
;WIDTH:0.151328
G1 X138.47 Y101.479 E.00211
;WIDTH:0.155134
G1 X138.468 Y101.465 E.00014
;WIDTH:0.196661
G1 X138.44 Y101.322 E.00187
;WIDTH:0.238186
G1 X138.411 Y101.178 E.00237
;WIDTH:0.27971
G1 X138.383 Y101.035 E.00288
